dist/img/icons/twitter.svg

<svg width="40" height="41" viewBox="0 0 40 41" fill="none" xmlns="http://www.w3.org/2000/svg">
<g id="Twitter">
<g id="Twitter_2">
<path id="Path" d="M33.0693 15.2303C33.0693 15.522 33.0693 15.8136 33.0693 16.0636C33.0693 24.6886 26.486 34.647 14.486 34.647C10.7777 34.647 7.361 33.5636 4.44434 31.7303C4.94434 31.772 5.486 31.8136 5.986 31.8136C9.02767 31.8136 11.861 30.772 14.111 29.022C11.236 28.9803 8.81934 27.0636 8.02767 24.4803C8.44434 24.5636 8.81934 24.6053 9.27767 24.6053C9.861 24.6053 10.4443 24.522 10.986 24.3553C7.986 23.772 5.736 21.147 5.736 17.9803C5.736 17.9386 5.736 17.9386 5.736 17.897C6.611 18.397 7.611 18.6886 8.69434 18.7303C6.94434 17.5636 5.77767 15.5636 5.77767 13.272C5.77767 12.0636 6.111 10.9386 6.65267 9.98031C9.861 13.9386 14.6943 16.522 20.111 16.8136C19.986 16.3553 19.9443 15.8136 19.9443 15.3136C19.9443 11.6886 22.861 8.77197 26.486 8.77197C28.361 8.77197 30.0693 9.56364 31.236 10.8136C32.736 10.522 34.111 9.98031 35.4027 9.23031C34.9027 10.772 33.861 12.022 32.5277 12.8553C33.861 12.6886 35.111 12.3553 36.2777 11.8136C35.4443 13.147 34.361 14.3136 33.0693 15.2303Z" fill="#F8F8FF"/>
</g>
</g>
</svg>

<svg width="40" height="41" fill="none" xmlns="http://www.w3.org/2000/svg"><path d="M33.07 15.23v.834c0 8.625-6.584 18.583-18.584 18.583-3.708 0-7.125-1.083-10.042-2.917.5.042 1.042.084 1.542.084a13.22 13.22 0 008.125-2.792 6.466 6.466 0 01-6.083-4.542c.416.084.791.125 1.25.125.583 0 1.166-.083 1.708-.25a6.486 6.486 0 01-5.25-6.375v-.083a6.41 6.41 0 002.958.833 6.543 6.543 0 01-2.916-5.458c0-1.208.333-2.333.875-3.292a18.585 18.585 0 0013.458 6.834c-.125-.459-.167-1-.167-1.5a6.526 6.526 0 016.542-6.542c1.875 0 3.583.792 4.75 2.042a13.29 13.29 0 004.167-1.584c-.5 1.542-1.542 2.792-2.875 3.625 1.333-.166 2.583-.5 3.75-1.041a11.94 11.94 0 01-3.209 3.416z" fill="#F8F8FF"/></svg>
